X: 4566
T: Both Meat And Drink
R: jig
M: 6/8
K: Gmajor
DGB deg|edB cAF|GBd g3|bag (3fga f|
gfg gf=f|e2 e gfe|f2 g agf|gdB cAF:|
GBd gfg|dBG GBd|=fef fef|agf agf|
g2 bba g|(3fga fgd B|cAF DED|DEF G2 D:|

